status/symbolic/audio-volume-high-symbolic.svg

<?xml version="1.0" encoding="UTF-8" standalone="no"?>
<svg
   xmlns:dc="http://purl.org/dc/elements/1.1/"
   xmlns:cc="http://creativecommons.org/ns#"
   xmlns:rdf="http://www.w3.org/1999/02/22-rdf-syntax-ns#"
   xmlns:svg="http://www.w3.org/2000/svg"
   xmlns="http://www.w3.org/2000/svg"
   version="1.1"
   width="16"
   height="16"
   id="svg3011">
  <defs
     id="defs3013" />
  <metadata
     id="metadata3016">
    <rdf:RDF>
      <cc:Work
         rdf:about="">
        <dc:format>image/svg+xml</dc:format>
        <dc:type
           rdf:resource="http://purl.org/dc/dcmitype/StillImage" />
        <dc:title />
      </cc:Work>
    </rdf:RDF>
  </metadata>
  <g
     id="layer1">
    <path
       d="M 12.0625,0.75 10.90625,1.78125 C 12.40566,2.84301 13.4375,5.24292 13.4375,8 c 0,2.75707 -1.03184,5.157 -2.53125,6.21875 L 12.0625,15.25 C 13.80379,13.98236 15,11.22466 15,8 15,4.77533 13.80379,2.01763 12.0625,0.75 z M 5,2.625 1.65625,6 0,6 0,10 1.65625,10 5,13.375 5,2.625 z m 4.84375,0.09375 -1.0625,0.9375 C 9.74661,4.68291 10.375,6.25038 10.375,8 c 0,1.74962 -0.62839,3.31709 -1.59375,4.34375 l 1.0625,0.9375 C 11.09452,12.0804 11.9375,10.18075 11.9375,8 11.9375,5.81924 11.09452,3.91961 9.84375,2.71875 z M 7.84375,4.5 6.75,5.5 c 0.43232,0.72272 0.6875,1.57538 0.6875,2.5 0,0.92461 -0.25518,1.77727 -0.6875,2.5 l 1.09375,1 C 8.55967,10.54719 9,9.32571 9,8 9,6.67429 8.55967,5.45281 7.84375,4.5 z"
       id="path6945-2"
       style="color:#bebebe;fill:#bebebe;fill-opacity:1;fill-rule:nonzero;stroke:none;stroke-width:1.82310748;marker:none;visibility:visible;display:inline;overflow:visible;enable-background:accumulate" />
  </g>
</svg>

<svg xmlns="http://www.w3.org/2000/svg" width="16" height="16"><path d="M12.063.75l-1.157 1.03c1.5 1.063 2.53 3.463 2.53 6.22.002 2.757-1.03 5.157-2.53 6.22l1.156 1.03C13.805 13.982 15 11.225 15 8c0-3.225-1.196-5.982-2.938-7.25zM5 2.625L1.656 6H0v4h1.656L5 13.375V2.625zm4.844.094l-1.064.93c.97 1.03 1.6 2.598 1.6 4.348s-.628 3.317-1.594 4.344l1.064.937c1.25-1.2 2.094-3.1 2.094-5.28S11.1 3.92 9.848 2.72zm-2 1.78l-1.094 1A4.85 4.85 0 0 1 7.438 8a4.85 4.85 0 0 1-.688 2.5l1.094 1A5.83 5.83 0 0 0 9 8a5.83 5.83 0 0 0-1.156-3.5z" color="#bebebe" fill="#bebebe" overflow="visible"/></svg>
